lib/svgs/sharp-down.svg

<?xml version="1.0" encoding="UTF-8"?>
<svg width="16px" height="16px" viewBox="0 0 16 16" version="1.1" xmlns="http://www.w3.org/2000/svg" xmlns:xlink="http://www.w3.org/1999/xlink">
    <!-- Generator: sketchtool 51.3 (57544) - http://www.bohemiancoding.com/sketch -->
    <title>sharp-down</title>
    <desc>Created with sketchtool.</desc>
    <defs></defs>
    <g id="Icons" stroke="none" stroke-width="1" fill="none" fill-rule="evenodd">
        <g id="Arrow" transform="translate(-20.000000, -164.000000)" fill="#000000">
            <g id="sharp-down" transform="translate(20.000000, 164.000000)">
                <path d="M8.47925101,15.7559536 L14.4051769,7.60780545 C14.6900391,7.21611993 14.410244,6.66666667 13.9259259,6.66666667 L10.8148148,6.65304302 L10.8148148,0.592592593 C10.8148148,0.265312741 10.5495021,0 10.2222222,0 L5.77777778,0 C5.45049793,0 5.18518519,0.265312741 5.18518519,0.592592593 L5.19540128,6.66666667 L2.07407407,6.66666667 C1.58975598,6.66666667 1.30996086,7.21611993 1.59482306,7.60780545 L7.52074899,15.7559536 C7.75740004,16.0813488 8.24259996,16.0813488 8.47925101,15.7559536 M3.233656,7.85185185 L5.77777778,7.85185185 C6.10505763,7.85185185 6.37037037,7.58653911 6.37037037,7.25925926 L6.38373316,1.18518519 L9.62962963,1.21401186 L9.62962963,7.25925926 C9.62962963,7.58653911 9.89494237,7.85185185 10.2222222,7.85185185 L12.7746617,7.83473123 L7.9907211,14.4889325 L3.233656,7.85185185" id="Shape"></path>
            </g>
        </g>
    </g>
</svg>

<svg xmlns="http://www.w3.org/2000/svg" viewBox="0 0 16 16">
    <path d="M8.48 15.756l5.925-8.148a.593.593 0 0 0-.48-.941l-3.11-.014V.593A.593.593 0 0 0 10.222 0H5.778a.593.593 0 0 0-.593.593l.01 6.074h-3.12a.593.593 0 0 0-.48.94l5.926 8.149a.593.593 0 0 0 .958 0M3.234 7.852h2.544a.593.593 0 0 0 .592-.593l.014-6.074 3.246.029v6.045c0 .328.265.593.592.593l2.553-.017-4.784 6.654-4.757-6.637"/>
</svg>
